src/svg/10_Hair/balding/balding/hair_balding_red.svg

<?xml version="1.0" encoding="utf-8"?>
<!-- Generator: Adobe Illustrator 23.0.1, SVG Export Plug-In . SVG Version: 6.00 Build 0)  -->
<svg version="1.1" id="Hair" xmlns="http://www.w3.org/2000/svg" xmlns:xlink="http://www.w3.org/1999/xlink" x="0px" y="0px"
	 width="450px" height="378px" viewBox="0 0 450 378" enable-background="new 0 0 450 378" xml:space="preserve">
<path fill="#DC4A26" stroke="#3E2670" stroke-width="4" stroke-miterlimit="10" d="M178.532,193.745c0,0-24.206,1.131-40.596-5.872
	c-28.681-12.255-36.555-49.83-28.426-69.702c2.298-5.617,3.901-6.979,4.468-6.128c0.128,0.191,0.67,2.135,0.553,4.596
	c-0.17,3.574,2.057,15.523,12.085,17.532c10.019,2.007,16.435,1.297,24.766,3.404c11.397,2.882,13.447,4.681,13.447,4.681
	s4.936,5.702,7.489,10.638l-2.979,7.149c-8.34-13.106-19.745-6.809-19.745,2.213C149.596,179.28,178.532,193.745,178.532,193.745z"
	/>
<path opacity="0.4" fill="#FFFFFF" d="M143.809,183.702c-21.848-5.383-39.82-37.024-33.015-57.388
	c1.923-5.756,2.393,17.957,12.531,19.303c5.262,0.698,2.934,13.408,9.08,23.277C138.088,178.021,152.123,185.751,143.809,183.702z"
	/>
</svg>

<svg width="450" height="378" viewBox="0 0 450 378" fill="none" xmlns="http://www.w3.org/2000/svg">
<path d="M178.532 193.745C178.532 193.745 154.326 194.876 137.936 187.873C109.255 175.618 101.381 138.043 109.51 118.171C111.808 112.554 113.411 111.192 113.978 112.043C114.106 112.234 114.648 114.178 114.531 116.639C114.361 120.213 116.588 132.162 126.616 134.171C136.635 136.178 143.051 135.468 151.382 137.575C162.779 140.457 164.829 142.256 164.829 142.256C164.829 142.256 169.765 147.958 172.318 152.894L169.339 160.043C160.999 146.937 149.594 153.234 149.594 162.256C149.596 179.28 178.532 193.745 178.532 193.745Z" fill="#9C1F00" stroke="#3E2670" stroke-width="4" stroke-miterlimit="10"/>
<path opacity="0.4" d="M143.809 183.702C121.961 178.319 103.989 146.678 110.794 126.314C112.717 120.558 113.187 144.271 123.325 145.617C128.587 146.315 126.259 159.025 132.405 168.894C138.088 178.021 152.123 185.751 143.809 183.702Z" fill="#EBB8AB"/>
</svg>
